X: 1
T: Merrily Danced the Quaker's Wife
O: Bremner 1760
Z: 2020 John Chambers <jc:trillian.mit.edu>
M: 6/8
L: 1/8
K: D
   A |\
"D"d>ef A2f | "A7"g2e "D"f2A | d>ef A2{B}A | A>Bd "A7"e>cA |\
"D"d>ef A>df | "G"a>gf "A7"e>cA | "D"d>ef "A7"A2{B}A | "G"B3 "D"d2 :|
   A |\
"D"d2f a2f | "G"b2{a}g "D"a2f | d2f "A7"a2g | "D"f3 a2A |\
"D"d2f a2f | "G"b2{a}g "D"a2f | "D"d>ef "A7"A2{B}A | "G"B3 "D"d2 |]
   A |\
"D"d2f a2f | "G"b2{a}g "D"a2f | d2f "A7"a2g | "D"f3 a2a |\
"G"b2g "A7"e>fg | "D"a2f d2A | d>ef "A7"A2{B}A | "G"B3 "D"d2 |]
